symbols/web/task/materialsymbolsrounded/task_wght200fill1_48px.svg

<svg xmlns="http://www.w3.org/2000/svg" height="48" width="48"><path d="M12.75 42q-1.15 0-1.95-.8t-.8-1.95V8.75q0-1.15.8-1.95t1.95-.8h15.6q.55 0 1.075.225.525.225.925.575l6.85 6.85q.35.4.575.925Q38 15.1 38 15.65v23.6q0 1.15-.8 1.95t-1.95.8ZM28.7 13.85q0 .55.4.95.4.4 1 .4h6.35L28.7 7.55ZM21.8 31.4l-4.2-4.25q-.1-.1-.225-.15-.125-.05-.25-.05t-.275.075l-.25.125q-.2.25-.2.55 0 .3.2.5l4.25 4.25q.2.2.425.3.225.1.525.1.3 0 .55-.1.25-.1.45-.3l8.5-8.55q.2-.2.2-.5t-.2-.5q-.25-.25-.5-.25t-.5.25Z"/></svg>

<svg xmlns="http://www.w3.org/2000/svg" height="48" width="48"><path d="M20.85 32.45Q21.05 32.65 21.275 32.75Q21.5 32.85 21.8 32.85Q22.1 32.85 22.35 32.75Q22.6 32.65 22.8 32.45L31.3 23.85Q31.5 23.65 31.5 23.4Q31.5 23.15 31.3 22.9Q31.05 22.65 30.8 22.65Q30.55 22.65 30.3 22.9L21.8 31.4L17.6 27.1Q17.35 26.95 17.075 26.95Q16.8 26.95 16.6 27.15Q16.4 27.4 16.4 27.675Q16.4 27.95 16.6 28.2ZM12.75 42Q11.6 42 10.8 41.2Q10 40.4 10 39.25V8.75Q10 7.6 10.8 6.8Q11.6 6 12.75 6H28.35Q28.9 6 29.4 6.2Q29.9 6.4 30.35 6.8L37.2 13.65Q37.6 14.1 37.8 14.6Q38 15.1 38 15.65V39.25Q38 40.4 37.2 41.2Q36.4 42 35.25 42ZM30.1 15.2H36.45L28.7 7.55V13.85Q28.7 14.4 29.1 14.8Q29.5 15.2 30.1 15.2Z"/></svg>
